packages/crayons-core/src/components/icon/icon-assets/icons/text-options.svg

<?xml version="1.0" encoding="UTF-8"?>
<svg width="14px" height="14px" viewBox="0 0 14 14" version="1.1" xmlns="http://www.w3.org/2000/svg" xmlns:xlink="http://www.w3.org/1999/xlink">
    <!-- Generator: Sketch 52.6 (67491) - http://www.bohemiancoding.com/sketch -->
    <title>icon/text-options</title>
    <desc>Created with Sketch.</desc>
    <g id="Icons-✅" stroke="none" stroke-width="1" fill="none" fill-rule="evenodd">
        <g id="Icons" transform="translate(-655.000000, -937.000000)" fill="currentColor">
            <g id="icon/text-options" transform="translate(655.000000, 937.000000)">
                <g id="text-options">
                    <path d="M10.85,10 C11.0098835,10.3148241 10.8845895,10.6996555 10.57,10.86 C10.4804716,10.906589 10.3809232,10.9306179 10.28,10.93 C10.0341413,10.9293484 9.80969032,10.790034 9.7,10.57 L8.55,8.25 L5.45,8.25 L4.3,10.57 C4.13923713,10.8896322 3.75038961,11.019248 3.43,10.86 C3.11541049,10.6996555 2.99011652,10.3148241 3.15,10 L6.43,3.43 C6.53441055,3.20988274 6.75637513,3.06969458 7,3.07 C7.24519841,3.07293578 7.46855577,3.21157139 7.58,3.43 L10.85,10 Z M6.1,7 L7.9,7 L7,5.16 L6.1,7 Z M13.3,10.9 C13.6865993,10.9 14,11.2134007 14,11.6 C13.9945208,12.9232072 12.9232072,13.9945208 11.6,14 C11.2134007,14 10.9,13.6865993 10.9,13.3 C10.9,12.9134007 11.2134007,12.6 11.6,12.6 C12.1522847,12.6 12.6,12.1522847 12.6,11.6 C12.6,11.2134007 12.9134007,10.9 13.3,10.9 Z M13.3,4.63 C13.6865993,4.63 14,4.94340068 14,5.33 L14,8.77 C14,9.15659932 13.6865993,9.47 13.3,9.47 C12.9134007,9.47 12.6,9.15659932 12.6,8.77 L12.6,5.33 C12.6,4.94340068 12.9134007,4.63 13.3,4.63 Z M11.6,1.4 C11.2134007,1.4 10.9,1.08659932 10.9,0.7 C10.9,0.313400675 11.2134007,-4.59632332e-14 11.6,-4.59632332e-14 C12.9232072,0.0054791892 13.9945208,1.0767928 14,2.4 C14,2.78659932 13.6865993,3.1 13.3,3.1 C12.9134007,3.1 12.6,2.78659932 12.6,2.4 C12.6,1.84771525 12.1522847,1.4 11.6,1.4 Z M2.4,12.6 C2.78659932,12.6 3.1,12.9134007 3.1,13.3 C3.1,13.6865993 2.78659932,14 2.4,14 C1.0767928,13.9945208 0.0054791892,12.9232072 -4.59632332e-14,11.6 C5.760733e-09,11.2134007 0.313400679,10.9 0.7,10.9 C1.08659932,10.9 1.39999999,11.2134007 1.4,11.6 C1.4,12.1522847 1.84771525,12.6 2.4,12.6 Z M0.7,9.47 C0.514348457,9.47 0.336300718,9.39625021 0.205025253,9.26497475 C0.0737497883,9.13369928 4.48530102e-14,8.95565154 4.51860771e-14,8.77 L4.51860771e-14,5.33 C5.76082415e-09,4.94340068 0.313400679,4.63000001 0.7,4.63000001 C1.08659932,4.63000001 1.39999999,4.94340068 1.4,5.33 L1.4,8.77 C1.4,9.15659932 1.08659932,9.47 0.7,9.47 Z M0.7,3.1 C0.313400675,3.1 -2.50910404e-14,2.78659932 -2.50910404e-14,2.4 C0.0054791892,1.0767928 1.0767928,0.0054791892 2.4,-4.5519144e-14 C2.78659932,9.97791605e-09 3.09999998,0.313400682 3.09999998,0.7 C3.09999998,1.08659932 2.78659932,1.39999999 2.4,1.4 C1.84771525,1.4 1.4,1.84771525 1.4,2.4 C1.4,2.78659932 1.08659932,3.1 0.7,3.1 Z M5.3,1.4 C4.91340068,1.39999999 4.60000001,1.08659932 4.60000001,0.7 C4.60000001,0.313400681 4.91340068,8.14701628e-09 5.3,4.51860771e-14 L8.7,4.51860771e-14 C9.08659932,5.76082415e-09 9.39999999,0.313400679 9.39999999,0.7 C9.39999999,1.08659932 9.08659932,1.39999999 8.7,1.4 L5.3,1.4 Z M8.7,12.6 C9.08659932,12.6 9.4,12.9134007 9.4,13.3 C9.4,13.6865993 9.08659932,14 8.7,14 L5.3,14 C4.91340068,14 4.6,13.6865993 4.6,13.3 C4.6,12.9134007 4.91340068,12.6 5.3,12.6 L8.7,12.6 Z" id="Combined-Shape"></path>
                </g>
            </g>
        </g>
    </g>
</svg>

<svg viewBox="0 0 14 14"><path d="M10.85 10a.64.64 0 0 1-.57.93.65.65 0 0 1-.58-.36L8.55 8.25h-3.1L4.3 10.57a.65.65 0 0 1-.87.29.64.64 0 0 1-.28-.86l3.28-6.57A.63.63 0 0 1 7 3.07a.66.66 0 0 1 .58.36L10.85 10zM6.1 7h1.8L7 5.16 6.1 7zm7.2 3.9a.7.7 0 0 1 .7.7 2.41 2.41 0 0 1-2.4 2.4.7.7 0 0 1 0-1.4 1 1 0 0 0 1-1 .7.7 0 0 1 .7-.7zm0-6.27a.7.7 0 0 1 .7.7v3.44a.7.7 0 0 1-1.4 0V5.33a.7.7 0 0 1 .7-.7zM11.6 1.4a.7.7 0 0 1 0-1.4A2.41 2.41 0 0 1 14 2.4a.7.7 0 0 1-1.4 0 1 1 0 0 0-1-1zM2.4 12.6a.7.7 0 0 1 0 1.4A2.41 2.41 0 0 1 0 11.6a.7.7 0 0 1 1.4 0 1 1 0 0 0 1 1zM.7 9.47a.7.7 0 0 1-.7-.7V5.33a.7.7 0 0 1 1.4 0v3.44a.7.7 0 0 1-.7.7zm0-6.37a.7.7 0 0 1-.7-.7A2.41 2.41 0 0 1 2.4 0a.7.7 0 0 1 0 1.4 1 1 0 0 0-1 1 .7.7 0 0 1-.7.7zm4.6-1.7a.7.7 0 0 1 0-1.4h3.4a.7.7 0 0 1 0 1.4H5.3zm3.4 11.2a.7.7 0 0 1 0 1.4H5.3a.7.7 0 0 1 0-1.4h3.4z" fill="currentColor" fill-rule="evenodd"/></svg>
